X:121
T:Cherkessia Kfula in parts
S:Colin Hume's website
Q:1/2=120
M:2/2
L:1/4
K:G
V:1
"G"dd2c|BAG2|"C"cc2d|e2e2|"G"dd2c|"G"B2A2|"D"d4|"D7"d4|
"G"dd2c|BAG2|"C"cc2d|e2e2|"G"dd2c|"D"B2A2|"G"G4|"G7"G4||
"C"ee2d|cde2|"G"dd2c|Bcd2|"D"cc2B|"D"A2Bc|"G"d4|"G7"d4|
"C"ee2d|cde2|"G"dd2c|Bcd2|"D"cc2B|"D7"A2BA|"G"G4|G4||
V:2
"G"BB2A|GFD2|"C"GG2B|c2c2|"G"BB2A|"G"G2F2|"D"A4|"D7"A4|
"G"BB2A|GFD2|"C"GG2B|c2c2|"G"BB2A|"D"G2F2|"G"G4|"G7"G4||
"C"cc2d|ABc2|"G"BB2A|GAB2|"D"AA2G|"D"F2GA|"G"B4|"G7"B4|
"C"cc2B|ABc2|"G"BB2A|GAB2|"D"AA2G|"D7"F2GF|"G"G4|"G" G4 ||

